X:1
T:Title
%%score { ( 1 3 ) | 2 }
L:1/8
M:4/4
K:D
V:1 treble nm="Grand Piano"
V:3 treble 
V:2 bass 
V:1
 z4 z2[Q:1/4=100] F2 | F3 E GF[DF][CE] | D6 D2 | [CE]3 [CE] [DF]2 [EG]2 | [DF]6 [FA]2 | %5
 [FA]3 [DF] [GB][FA][DFA][CEG] | [CEG]6 [CEG]2 | [CEG]3 [CE] [FA]2 [EG]2 | F6 F2 | %9
 F3 D GF[DF][CE] | [CE]6 [CE]2 | [^G,DE]3 [A,DF] [B,D^G]2 [DGB]2 | [CA]6 [CGA]2 | %13
 [DFd]3 [DFA] [A,EG][A,DF][B,F][B,E] | [DB]6 [B,DG]2 | [A,DF]3[K:bass] [F,D] [A,CF]2 [G,CE]2 | %16
[M:5/8] [F,D]-[F,D]- [F,D]3 |[M:3/8][K:treble] BAF |[M:4/4] A6 z2 | A4 z4 | B3 B BB[Gc][Fd] | %21
 [Ec]4- [Ec]BAF | A6 z2 | A6 z2 | %24
 [A,DF]3 [A,DF] [A,DF][K:bass][F,D][A,CF][G,CE][Q:1/4=97][Q:1/4=94][Q:1/4=91][Q:1/4=88][Q:1/4=84][Q:1/4=81][Q:1/4=78] | %25
[M:3/4] [F,D]6 |] %26
V:2
 z4 z2 [D,A,D]2 | [D,A,D]3 [D,G,D] [D,B,D][D,A,D][A,,A,][A,,G,] | [D,F,]6 [D,F,]2 | %3
 [A,,A,]3 [A,,A,] [A,,A,]2 [A,,A,]2 | [D,A,]6 [D,D]2 | [D,D]3 [D,A,] [D,D][D,D]A,,A,, | A,,6 A,,2 | %7
 A,,3 [A,,A,] [A,,A,]2 [A,,A,]2 | [D,A,D]6 [D,A,D]2 | %9
 [D,A,D]3 [D,F,] [D,B,D][D,A,D][A,,A,][A,,A,] | [A,,A,]6 [A,,A,]2 | E,3 E, E,2 E,2 | A,,6 A,2 | %13
 D,3 D, C,D,[G,,G,][G,,G,] | [G,,G,]6 G,,2 | A,,3 A,, A,,2 A,,2 |[M:5/8] D,-D,- D,3 |[M:3/8] z3 | %18
[M:4/4] z [A,C][A,C][G,C] .F,2 z2 | z [G,A,][F,A,][E,C] [D,D]2 [D,D]2 | %20
 [G,DG]3 [G,DG] [G,DG][G,B,G][K:bass][E,A,][D,A,] | [A,,A,]6 z2 | z [A,C][A,C][G,C] .F,2 z2 | %23
 z [G,A,][F,A,][E,C] [D,D]2 G,,2 | A,,3 A,, A,,A,,A,,A,, |[M:3/4] D,6 |] %26
V:3
 x8 | x8 | x8 | x8 | x8 | x8 | x8 | x8 | x8 | x8 | x8 | x8 | x8 | x8 | x8 | x3[K:bass] x5 | %16
[M:5/8] x5 |[M:3/8][K:treble] x3 |[M:4/4] z GFE DBAF | z CDG [FA]2 [FA]2 | x8 | x8 | z GFE DBAF | %23
 z CDG F2 [B,EG]2 | x5[K:bass] x3 |[M:3/4] x6 |] %26

